X:29
T: Heimkehr des Ehemannes
N: Q0011
O: Suedosteuropa, Jugoslawien, Gottschee, Lichtenbach
R: Ballade, Ehe, Heimkehr
M: 2/4
L: 1/8
K: G
D2 | G2GA | BAGD | G2GA | B2
DD | G2GA | B2dc | B2AF | G2
DD | G2GA | B2dc | B2AF | G2

